X:1
T:Drink to me only with thine eyes
T:Elizabeth Turner (17?? - 1756)
T:Poem by Ben Jonson (1572-1637)
T:Drink to me only with thine eyes
T:A song
T:Copyright © 
T:Copyright © 
T:Copyright © 
C:Elizabeth Turner (17?? - 1756)
Z:Poem by Ben Jonson (1572-1637)
Z:Copyright ©
%%score 1 { 2 | 3 }
L:1/8
M:4/4
K:Bb
V:1 treble nm="P1" snm="S."
V:2 treble nm="Harp- sichord" snm="Hpsd."
V:3 bass 
V:1
 z2 | z8 | z8 | z8 | z8 | z8 | z8 | z8 | z6 |: F2 |{c} B2 (AG){G} F2 (ED) | G2{B} A2 B2 z d | %12
w: |||||||||Drink|* me _ _ ly _|with * eyes, and|
w: |||||||||I|* thee _ _ a _|ro- * wreath, not|
 (cB) (AG) F2 z E | (E2 D2) z2 F2 | (f=e) (fd){d} c2 (BA) |{A} G3 F{F} =E2 z d | %16
w: I _ will _ pledge with|mine; _ or|leave _ a _ _ but _|_ the * and|
w: so _ much _ hon'- ring|thee; _ as|gi- * ving _ _ a _|_ that * it|
{d} c2 BA{A} G2 F=E | (F2{A} G2{B} A2) z =e | (f<c) (B<A) (G<F) (G>A) | F2 z2 z4 | z8 | z8 | z6 :: %23
w: * not _ _ for _|wine; _ _ and|I'll _ not _ look _ for _|wine.||||
w: * not _ _ ered _|be, _ _ it|could _ not _ with- * ered _|be.||||
 F2 | (BA) (Bc) d3 e | f3 _A (G=A) B2 | c2{e} d2 (ec) (dB) | F4 z2 D>E | F2 (G>A) B2 d2 | %29
w: The|thirst _ that _ from the|soul doth rise, _ doth|ask * drink _ di- *|vine; but _|might I _ of Jove's|
w: But|thou _ there- * on did'st|on- ly breathe _ and|sent'st * back _ to _|me; since _|when it _ grows and|
{d} e2 (dc){c} d3 g |{g} f2 (ed){d} c2 (BA) | (B3 c{!fermata!B!fermata!c} !fermata!d2) F2 | %32
w: * tar _ _ I|* not _ _ for _|thine, _ _ I|
w: * I _ _ not|* it- * * but _|thee, _ _ not|
{^F} G2 (cd/e/) (dc) (BA) | B2 z2 z4 | z8 | z8 | z8 | z6 :| %38
w: * not _ change _ _ for _|thine.|||||
w: * it- * * self _ but _|thee.|||||
V:2
 F2 |{c} B2 (AG){G} F2 (ED) | (GB)(Ac) (Bf)(dB) | (cA)(BG) Fefg | (fe)(dc){c} d3 e | %5
 (fd)(B_A){A} G3 B | (g=e)(cB){B} A3 B | (c3/2d/4e/4) dc (dA)(BG) | F>ED>C B,2 |: F2 | %10
{c} B2 (AG){G} F2 (ED) | G2{B} A2 B2 z d | (cB) (AG) F2 z E | (E2 D2) z2 F2 | %14
 (f=e) (fd){d} c2 (BA) |{A} G3 F{F} =E2 z d |{d} c2 BA{A} G2 F=E | F2{A} G2{B} A2 z =e | %18
 (f<c) (B<A) (G<F) (G>A) | Fa/g/ (f/=e/)(d/c/) B(d/c/) (B/A/G/F/) | =EG/F/ E/D/C/=B,/ C3 _B | %21
{B} A2 GF Gd c>=E |{=E} F6 :: F2 | (BA) (Bc) d3 e | f3 _A (G=A) B2 | c2{e} d2 (ec) (dB) | %27
 F4 z2 D>E | F2 (G>A) B2 d2 |{d} e2 (dc){c} d3 g |{g} f2 (ed){d} c2 (BA) | %31
 (B3 c{!fermata!B!fermata!c} !fermata!d2) F2 | G2 (cd/e/) (dc) (BA) | B3 c{Bc} d2 (F^F) | %34
 Gg=fe (df)(Ac) | B(c/d/) (e/f/g/a/) bfd'f | gG{f} e{d}c dbca | bfdf B2 :| %38
V:3
"^A flute was intended to be played in unison with the left hand staff" z2 | B,,2 C,2 D,2 B,,2 | %2
w: |6 * 6 *|
 E,2 C,2 D,2 B,,2 | F,2 G,2 A,2 z E, | F,2 F,,2 B,,2 C,2 | D,2 B,,2 E,2 D,2 | C,2 =E,2 F,2 G,2 | %7
w: * 6 6 *|* * 6 *|6~4 5~3 * 6|6 * * 6|* 6 * 6|
 A,2 F,2 B,2 E,2 | F,2 F,,2 B,,2 |: z2 | B,,2 C,2 D,2 B,,2 | E,2 C,2 D,2 B,,2 | E,2 C,2 F,G,A,F, | %13
w: 6 * * *|6~4 5~3 *||* 6 6 *|* 6 6 *|6 6 * * 6 7|
 B,2 F,D, B,,4 | A,3 B, A,2 F,2 | B,2 =B,2 C2 _B,2 | A,2 F,2 B,2 C2 | A,F,=E,G, F,A,G,B, | %18
w: 4~5 6~4 * *|6 * 6 *|6 6~5 * 4+~2|6 * 6~5 *|6 * 6 * * * 6 *|
 A,2 F,2 B,2 C2 | F,3 A,, B,,3 =B,, | C,3 D, =E,2 C,2 | F,2 A,,2 B,,2 C,2 | F,>C, A,,>C, F,,2 :: %23
w: 6 * 6~5 *|* 6 * 6~5|* 6 6 7|* 6 6~5 *||
 F,>E, | D,3 C, B,,A,,B,,C, | D,2 B,,2 E,2 D,2 | A,,2 B,,2 F,2 B,2 | A,3 B, A,G,F,E, | %28
w: |6\-\-\-\-\-\-\- * * * * *|6 7 * 6|6 * 7 *|6 * 6 * 6~~~~~4\-\-\- *|
 D,2 E,2 D,2 B,,2 | G,,2 A,,2 B,,2 E,2 | D,2 B,,2 E,2 F,2 | !fermata!B,,6 D,2 | E,2 C,2 F,2 F,,2 | %33
w: 6 * 6 *|6 * 6~5 *|6 * 6~5 *|* 6|* * 6~4 5~3|
 B,,4 z2 D,2 | E,2 C,2 F,2 F,,2 | B,,4 D,2 B,,2 | E,2 C,2 F,2 F,,2 | B,,6 :| %38
w: * 6|* * 6~4 5~3|* 6 *|* * 6~4 5~3||

